icons/desktop/12/svg/gift-box-12.svg

<svg width="12" height="12" viewBox="0 0 12 12" fill="none" xmlns="http://www.w3.org/2000/svg">
<g clip-path="url(#clip0_8069_32494)">
<path fill-rule="evenodd" clip-rule="evenodd" d="M4.375 0C5.01416 3.47703e-05 5.5903 0.26797 6 0.696289C6.4097 0.267924 6.98578 0 7.625 0H7.82812C9.07025 6.75715e-05 10.0781 1.00786 10.0781 2.25C10.0781 2.56822 10.0107 2.87032 9.8916 3.14453C10.0171 3.15372 10.1419 3.16097 10.2656 3.1709L10.4229 3.19141C11.1961 3.32932 11.75 4.01067 11.75 4.79199V5.375C11.75 5.94964 11.4504 6.45324 11 6.74219V9.52539C11 10.7756 10.0244 11.81 8.78418 11.8994C7.79603 11.9706 6.86471 11.999 6 11.999C5.01213 11.999 4.07514 11.9614 3.19434 11.8984C1.94644 11.8095 1 10.7633 1 9.52637V6.74219C0.549582 6.45324 0.25 5.94964 0.25 5.375V4.79395C0.250028 3.95131 0.90024 3.23819 1.74609 3.1709C1.8674 3.16117 1.98828 3.15333 2.1084 3.14453C1.98935 2.87043 1.92188 2.56837 1.92188 2.25C1.92188 1.00786 2.92975 6.60241e-05 4.17188 0H4.375ZM6.625 10.7441C7.28091 10.7333 7.97202 10.7044 8.69434 10.6523C9.28781 10.6095 9.75 10.113 9.75 9.52539V7H6.625V10.7441ZM2.25 9.52637C2.25 10.1213 2.70333 10.61 3.2832 10.6514C3.94835 10.6989 4.64653 10.7301 5.375 10.7422V7H2.25V9.52637ZM6.625 5.75H10.125C10.3318 5.75 10.5 5.58182 10.5 5.375V4.79199C10.5 4.58756 10.3484 4.43151 10.167 4.41699C9.05786 4.32796 7.87423 4.27086 6.625 4.25586V5.75ZM5.375 4.25391C4.59719 4.26317 3.78407 4.29001 2.93848 4.33984L1.8457 4.41602C1.65592 4.43104 1.50003 4.59684 1.5 4.79395V5.375C1.5 5.58182 1.66818 5.75 1.875 5.75H5.375V4.25391ZM4.17188 1.25C3.62011 1.25007 3.17188 1.69822 3.17188 2.25C3.17188 2.58113 3.33238 2.87359 3.58203 3.05664C4.19812 3.02869 4.79611 3.01262 5.375 3.00586V2.25C5.375 1.69822 4.92676 1.25007 4.375 1.25H4.17188ZM7.625 1.25C7.07318 1.25 6.625 1.69818 6.625 2.25V3.00586C7.23758 3.01304 7.83448 3.03032 8.41504 3.05664C8.66567 2.87389 8.82812 2.58179 8.82812 2.25C8.82812 1.69822 8.37989 1.25007 7.82812 1.25H7.625Z" fill="black"/>
</g>
<defs>
<clipPath id="clip0_8069_32494">
<rect width="12" height="12" fill="white"/>
</clipPath>
</defs>
</svg>

<!-- This Source Code Form is subject to the terms of the Mozilla Public
   - License, v. 2.0. If a copy of the MPL was not distributed with this
   - file, You can obtain one at http://mozilla.org/MPL/2.0/. -->
<svg xmlns="http://www.w3.org/2000/svg" width="12" height="12" fill="context-fill" fill-opacity="context-fill-opacity" viewBox="0 0 12 12">
    <path fill-rule="evenodd" d="M4.375 0C5.015 0 5.59.268 6 .696 6.41.268 6.986 0 7.625 0h.203a2.25 2.25 0 0 1 2.064 3.145q.188.012.374.026l.157.02c.773.138 1.327.82 1.327 1.601v.583c0 .575-.3 1.078-.75 1.367v2.783c0 1.25-.976 2.285-2.216 2.374a39 39 0 0 1-5.59 0A2.37 2.37 0 0 1 1 9.525V6.742a1.62 1.62 0 0 1-.75-1.367v-.581c0-.843.65-1.556 1.496-1.623q.182-.014.362-.026A2.25 2.25 0 0 1 4.171 0zm2.25 10.744a37 37 0 0 0 2.07-.092A1.14 1.14 0 0 0 9.75 9.525V7H6.625zM2.25 9.526a1.12 1.12 0 0 0 1.033 1.125 38 38 0 0 0 2.092.091V7H2.25zM6.625 5.75h3.5a.375.375 0 0 0 .375-.375v-.583a.37.37 0 0 0-.333-.375 52 52 0 0 0-3.542-.161zm-1.25-1.496q-1.167.013-2.437.086l-1.092.076a.38.38 0 0 0-.346.378v.581c0 .207.168.375.375.375h3.5zM4.172 1.25a1 1 0 0 0-.59 1.807 53 53 0 0 1 1.793-.051V2.25a1 1 0 0 0-1-1zm3.453 0a1 1 0 0 0-1 1v.756q.92.01 1.79.05a1 1 0 0 0 .413-.806 1 1 0 0 0-1-1z" clip-rule="evenodd" />
</svg>
